static/images/mobile/copyright/wikipedia-wordmark-as.svg

<?xml version="1.0" encoding="UTF-8"?>
<svg width="110px" height="25px" viewBox="0 0 110 25" version="1.1" xmlns="http://www.w3.org/2000/svg" xmlns:xlink="http://www.w3.org/1999/xlink">
    <title>as-wordmark</title>
    <g id="Page-1" stroke="none" stroke-width="1" fill="none" fill-rule="evenodd">
        <path d="M92.7108168,21.8057395 C93.3907285,21.8057395 93.8763797,22.2913907 93.8763797,22.995585 C93.8763797,23.6997792 93.3907285,24.1854305 92.7108168,24.1854305 C92.0309051,24.1854305 91.5452539,23.6997792 91.5452539,22.995585 C91.5452539,22.2913907 92.0309051,21.8057395 92.7108168,21.8057395 Z M10.1501104,20.3730684 L13.4039735,22.4613687 L12.2626932,23.6997792 L9.00883002,21.6357616 L10.1501104,20.3730684 Z M103.662252,7.23620309 C104.87638,7.23620309 105.362031,7.81898455 105.556291,8.08609272 L105.677704,8.08609272 C105.604857,7.89183223 105.337748,6.9205298 105.337748,5.53642384 L105.337748,4.83222958 L107.086093,4.83222958 L107.086093,7.23620309 L110,7.23620309 L110,8.79028698 L107.086093,8.79028698 L107.086093,22.8256071 L105.313466,22.8256071 L105.313466,10.8057395 C105.313466,9.42163355 104.657837,8.79028698 103.370861,8.79028698 L100.456954,8.79028698 L100.456954,21.3686534 L101.428256,21.9757174 L100.214128,23.1898455 L90.6953642,17.2649007 L90.6953642,15.4679912 L94.2406181,12.7483444 L90.9624724,9.27593819 L90.9624724,8.79028698 L80.8609272,8.79028698 L80.8609272,12.6269316 C80.8609272,13.4525386 81.1766004,13.9624724 82.0022075,13.9624724 C82.7549669,13.9624724 84.4304636,13.4525386 86.1545254,11.8498896 C86.9558499,12.384106 87.9757174,13.816777 87.9757174,15.6379691 C87.9757174,18.9889625 85.5474614,21.3443709 81.7350993,21.3443709 C76.8543046,21.3443709 74.1346578,17.3134658 73.9161148,12.6512141 L75.615894,12.2869757 C75.785872,16.9249448 78.2626932,19.6931567 81.7593819,19.6931567 C84.4304636,19.6931567 86.2273731,18.0905077 86.2273731,15.6865342 C86.2273731,15.0066225 86.0573951,14.4238411 85.8145695,14.1081678 C84.6490066,15.0794702 83.192053,15.6136865 81.8807947,15.6136865 C80.1081678,15.6136865 79.0640177,14.3752759 79.0640177,12.7240618 L79.0640177,8.79028698 L70.5651214,8.79028698 L70.5651214,22.8256071 L68.7924945,22.8256071 L68.7924945,8.79028698 L63.9602649,8.79028698 L63.9602649,22.8256071 L62.1633554,22.8256071 L62.1633554,14.9094923 C62.1633554,14.3024283 62.1147903,13.7196468 61.9933775,13.1854305 L54.392936,18.1390728 L53.4944812,16.7792494 L56.0198675,15.1280353 C55.5584989,13.6467991 54.6843267,12.0927152 52.5717439,11.9713024 C52.401766,11.9470199 52.2075055,11.9227373 52.013245,11.9227373 L50.9933775,10.5143488 C51.9646799,8.9602649 53.9801325,7.09050773 57.0640177,7.09050773 C60.0750552,7.09050773 61.7262693,8.8388521 62.4547461,10.2229581 L62.5275938,10.1986755 C62.406181,9.83443709 62.1633554,7.74613687 62.1633554,5.85209713 L62.1633554,4.83222958 L63.9602649,4.83222958 L63.9602649,7.23620309 L68.7924945,7.23620309 L68.7924945,5.19646799 C68.7924945,2.47682119 70.8565121,1.77635684e-15 74.5474614,1.77635684e-15 C78.2626932,1.77635684e-15 81.3951435,1.84547461 82.9735099,3.2781457 L81.9050773,4.54083885 C80.205298,3.03532009 77.5584989,1.65121413 74.5717439,1.65121413 C71.9006623,1.65121413 70.5651214,3.3995585 70.5651214,5.41501104 L70.5651214,7.23620309 Z M52.0375276,1.77635684e-15 C55.7527594,1.77635684e-15 58.8852097,1.84547461 60.4635762,3.2781457 L59.3951435,4.54083885 C57.6953642,3.03532009 55.0485651,1.65121413 52.0618102,1.65121413 C49.3907285,1.65121413 48.0551876,3.3995585 48.0551876,5.41501104 L48.0551876,7.23620309 L50.9690949,7.23620309 L50.9690949,8.79028698 L48.0551876,8.79028698 L48.0551876,22.8256071 L46.2825607,22.8256071 L46.2825607,8.79028698 L37.1523179,8.79028698 L37.1523179,11.0242826 C40.6732892,11.0971302 42.6401766,13.3554084 42.6401766,15.7350993 C42.6401766,17.6291391 41.5717439,19.1346578 40.187638,19.8874172 L38.9492274,18.6004415 C39.9933775,18.1633554 40.8918322,17.0463576 40.8918322,15.7108168 C40.8918322,14.0110375 39.580574,12.7240618 37.1523179,12.6754967 L37.1523179,21.1986755 L38.1479029,22 L36.7637969,23.0684327 L28.3134658,16.0993377 L28.3134658,14.5452539 C30.3532009,12.7969095 32.8057395,11.4856512 35.4039735,11.1214128 L35.4039735,8.79028698 L24.6467991,8.79028698 L24.6467991,22.8256071 L22.8741722,22.8256071 L22.8741722,8.79028698 L18.0419426,8.79028698 L18.0419426,21.2715232 L19.0375276,21.9271523 L17.799117,23.1655629 L8.35320088,16.9735099 L8.35320088,15.3465784 C9.7615894,13.9381898 13.3311258,11.5584989 16.2450331,10.611479 L16.2450331,8.79028698 L4.68653422,8.79028698 L4.68653422,22.8256071 L2.91390728,22.8256071 L2.91390728,8.79028698 L0,8.79028698 L0,7.23620309 L2.91390728,7.23620309 L2.91390728,5.19646799 C2.91390728,2.47682119 4.97792494,1.77635684e-15 8.66887417,1.77635684e-15 C12.384106,1.77635684e-15 15.5165563,1.84547461 17.0949227,3.2781457 L16.0264901,4.54083885 C14.3267108,3.03532009 11.6799117,1.65121413 8.69315673,1.65121413 C6.02207506,1.65121413 4.68653422,3.3995585 4.68653422,5.41501104 L4.68653422,7.23620309 L22.8741722,7.23620309 L22.8741722,5.19646799 C22.8741722,2.47682119 24.9381898,1.77635684e-15 28.6291391,1.77635684e-15 C32.3443709,1.77635684e-15 35.4768212,1.84547461 37.0551876,3.2781457 L35.986755,4.54083885 C34.2869757,3.03532009 31.6401766,1.65121413 28.6534216,1.65121413 C25.98234,1.65121413 24.6467991,3.3995585 24.6467991,5.41501104 L24.6467991,7.23620309 L46.2825607,7.23620309 L46.2825607,5.19646799 C46.2825607,2.47682119 48.3465784,1.77635684e-15 52.0375276,1.77635684e-15 Z M98.6843267,8.79028698 L92.8807947,8.79028698 L92.8807947,8.88741722 L95.9646799,12.1412804 L95.9646799,13.5011038 L92.3222958,16.3178808 L98.8057395,20.3730684 L98.9028698,20.3730684 C98.781457,18.6247241 98.6843267,17.1192053 98.6843267,15.5651214 L98.6843267,8.79028698 Z M16.2450331,12.384106 C14.2538631,13.1125828 11.2913907,14.98234 10.1258278,16.1479029 L16.3421634,20.2030905 L16.4392936,20.2030905 C16.2935982,18.5761589 16.2450331,16.9006623 16.2450331,15.3222958 L16.2450331,12.384106 Z M35.4039735,12.8211921 C33.3642384,13.1125828 31.4459161,14.2538631 30.0860927,15.3708609 L35.4768212,19.9116998 L35.5739514,19.9116998 C35.4282561,18.1633554 35.4039735,16.5607064 35.4039735,15.0309051 L35.4039735,12.8211921 Z M57.1368653,8.71743929 C55.0971302,8.71743929 53.7373068,9.88300221 53.2516556,10.5386313 C55.0485651,10.7086093 56.602649,11.8013245 57.4039735,14.2538631 L61.4834437,11.5827815 C60.6821192,9.85871965 59.200883,8.71743929 57.1368653,8.71743929 Z" id="as-wordmark" fill="#000000" fill-rule="nonzero"></path>
    </g>
</svg>

<svg xmlns="http://www.w3.org/2000/svg" width="110" height="25"><path fill="#000" fill-rule="nonzero" d="M92.71 21.806c.68 0 1.166.485 1.166 1.19 0 .704-.485 1.19-1.165 1.19s-1.166-.486-1.166-1.19c0-.705.486-1.19 1.166-1.19Zm-82.56-1.433 3.254 2.088-1.141 1.239-3.254-2.064 1.141-1.263Zm93.512-13.137c1.214 0 1.7.583 1.894.85h.122c-.073-.194-.34-1.165-.34-2.55v-.704h1.748v2.404H110V8.79h-2.914v14.036h-1.773v-12.02c0-1.384-.655-2.016-1.942-2.016h-2.914V21.37l.971.607-1.214 1.214-9.519-5.925v-1.797l3.546-2.72-3.279-3.472V8.79H80.861v3.837c0 .826.316 1.335 1.141 1.335.753 0 2.428-.51 4.153-2.112.8.534 1.82 1.967 1.82 3.788 0 3.351-2.428 5.706-6.24 5.706-4.88 0-7.6-4.03-7.819-8.693l1.7-.364c.17 4.638 2.647 7.406 6.143 7.406 2.671 0 4.468-1.602 4.468-4.006 0-.68-.17-1.263-.412-1.579-1.166.971-2.623 1.506-3.934 1.506-1.773 0-2.817-1.239-2.817-2.89V8.79h-8.499v14.036h-1.773V8.79H63.96v14.036h-1.797v-7.917c0-.607-.048-1.19-.17-1.724l-7.6 4.954-.899-1.36 2.526-1.651c-.462-1.481-1.336-3.035-3.448-3.157a3.986 3.986 0 0 0-.559-.048l-1.02-1.409c.972-1.554 2.987-3.423 6.071-3.423 3.011 0 4.662 1.748 5.39 3.132l.074-.024c-.122-.365-.365-2.453-.365-4.347v-1.02h1.797v2.404h4.832v-2.04c0-2.72 2.065-5.196 5.755-5.196 3.716 0 6.848 1.845 8.427 3.278l-1.069 1.263c-1.7-1.506-4.347-2.89-7.333-2.89-2.671 0-4.007 1.749-4.007 3.764v1.821ZM52.038 0c3.715 0 6.847 1.845 8.426 3.278l-1.069 1.263c-1.7-1.506-4.346-2.89-7.333-2.89-2.671 0-4.007 1.749-4.007 3.764v1.821h2.914V8.79h-2.914v14.036h-1.772V8.79h-9.13v2.234c3.52.073 5.487 2.331 5.487 4.711a4.7 4.7 0 0 1-2.452 4.152L38.949 18.6c1.044-.437 1.943-1.554 1.943-2.89 0-1.699-1.311-2.986-3.74-3.035V21.2l.996.801-1.384 1.068-8.45-6.969v-1.554c2.04-1.748 4.492-3.06 7.09-3.424v-2.33H24.647v14.035h-1.773V8.79h-4.832v12.482l.996.655-1.239 1.239-9.446-6.192v-1.627c1.409-1.409 4.978-3.789 7.892-4.736v-1.82H4.687v14.035H2.914V8.79H0V7.236h2.914v-2.04C2.914 2.476 4.978 0 8.669 0c3.715 0 6.848 1.845 8.426 3.278l-1.069 1.263c-1.7-1.506-4.346-2.89-7.333-2.89-2.67 0-4.006 1.749-4.006 3.764v1.821h18.187v-2.04C22.874 2.476 24.938 0 28.63 0c3.715 0 6.848 1.845 8.426 3.278l-1.068 1.263c-1.7-1.506-4.347-2.89-7.334-2.89-2.67 0-4.006 1.749-4.006 3.764v1.821h21.636v-2.04c0-2.72 2.064-5.196 5.755-5.196Zm46.646 8.79h-5.803v.097l3.084 3.254v1.36l-3.643 2.817 6.484 4.055h.097c-.122-1.748-.219-3.254-.219-4.808V8.79Zm-82.439 3.594c-1.991.729-4.954 2.598-6.12 3.764l6.217 4.055h.097a55.39 55.39 0 0 1-.194-4.88v-2.939Zm19.159.437c-2.04.292-3.958 1.433-5.318 2.55l5.39 4.54h.098c-.146-1.748-.17-3.35-.17-4.88v-2.21Zm21.733-4.104c-2.04 0-3.4 1.166-3.885 1.822 1.797.17 3.35 1.262 4.152 3.715l4.08-2.671c-.802-1.724-2.283-2.866-4.347-2.866Z"/></svg>
